X: 21302
M: 6/8
L: 1/8
K: D
V: 1 name="2"
def edc | Bcd efg | a2a cBc | d2f d2 H|]
d |\
g3 gec | dcd A2A | A^GA d2f | e3 a2A |\
g3 gec | d2f b2a | ^gab efg | aba gf"^D.C."e |]


